rospo-icon-theme-classic-common/32x32/apps/com.github.allen-b1.news.svg

<svg height="32" width="32" xmlns="http://www.w3.org/2000/svg"><rect height="28" opacity=".2" rx="1.4" width="28" x="2" y="3"/><rect fill="#c93e5f" height="28" rx="1.4" width="28" x="2" y="2"/><path d="m3.4004 2c-.7756 0-1.4004.6248-1.4004 1.4004v1c0-.7756.6248-1.4004 1.4004-1.4004h25.2c.775 0 1.4.6248 1.4 1.4004v-1c0-.7756-.625-1.4004-1.4-1.4004z" fill="#fff" opacity=".2"/><path d="m5 15v1c0 .55.453 1 1 1 4.971 0 9 4.029 9 9 0 .55.453 1 1 1h1v-1c0-6.075-4.925-11-11-11zm0 4v1c0 .55.453 1 1 1 2.761 0 5 2.239 5 5 0 .55.453 1 1 1h1v-1c0-3.866-3.134-7-7-7zm2 4c-1.105 0-2 .895-2 2s .895 2 2 2 2-.895 2-2-.895-2-2-2z" fill="#fff"/></svg>

<svg xmlns="http://www.w3.org/2000/svg" width="32" height="32" version="1">
 <rect style="opacity:0.2" width="28" height="28" x="2" y="3" rx="1.4" ry="1.4"/>
 <rect style="fill:#c93e5f" width="28" height="28" x="2" y="2" rx="1.4" ry="1.4"/>
 <path style="opacity:0.2;fill:#ffffff" d="M 3.4004,2 C 2.6248,2 2,2.6248 2,3.4004 l 0,1 C 2,3.6248 2.6248,3 3.4004,3 l 25.2,0 c 0.775,0 1.4,0.6248 1.4,1.4004 l 0,-1 C 30.0004,2.6248 29.3754,2 28.6004,2 l -25.2,0 z"/>
 <path style="fill:#ffffff" d="M 5,15 V 16 C 5,16.55 5.453,17 6,17 10.971,17 15,21.029 15,26 15,26.55 15.453,27 16,27 H 17 V 26 C 17,19.925 12.075,15 6,15 Z M 5,19 V 20 C 5,20.55 5.453,21 6,21 8.761,21 11,23.239 11,26 11,26.55 11.453,27 12,27 H 13 V 26 C 13,22.134 9.866,19 6,19 Z M 7,23 C 5.895,23 5,23.895 5,25 5,26.105 5.895,27 7,27 8.105,27 9,26.105 9,25 9,23.895 8.105,23 7,23 Z"/>
</svg>
